flaticon/productivity-and-development/ruler.svg

<svg xmlns="http://www.w3.org/2000/svg" width="32" height="32" viewBox="0 0 24 24">
    <path d="M 18.527344 0 L 0 18.53125 L 5.472656 24 L 24 5.46875 Z M 1.417969 18.53125 L 3.253906 16.691406 L 4.976562 18.414062 L 5.6875 17.707031 L 3.964844 15.984375 L 5.800781 14.148438 L 7.523438 15.871094 L 8.230469 15.160156 L 6.511719 13.4375 L 8.347656 11.601562 L 10.066406 13.324219 L 10.777344 12.613281 L 9.054688 10.890625 L 10.890625 9.054688 L 12.613281 10.777344 L 13.324219 10.066406 L 11.601562 8.347656 L 13.4375 6.511719 L 15.160156 8.230469 L 15.871094 7.523438 L 14.148438 5.800781 L 15.984375 3.964844 L 17.707031 5.6875 L 18.414062 4.976562 L 16.691406 3.253906 L 18.527344 1.417969 L 22.582031 5.46875 L 5.472656 22.582031 Z M 1.417969 18.53125"/>
</svg>

<svg xmlns="http://www.w3.org/2000/svg" width="32" height="32" viewBox="0 0 24 24">
    <path d="M18.527 0L0 18.531 5.473 24 24 5.469zM1.418 18.531l1.836-1.84 1.723 1.723.71-.707-1.722-1.723L5.8 14.148l1.722 1.723.707-.71-1.718-1.723 1.836-1.836 1.718 1.722.711-.71-1.722-1.723 1.836-1.836 1.722 1.722.711-.71-1.722-1.72 1.835-1.835L15.16 8.23l.711-.707-1.723-1.722 1.836-1.836 1.723 1.723.707-.711-1.723-1.723 1.836-1.836 4.055 4.05-17.11 17.114zm0 0"/>
</svg>
